symbols-de/shields/motorway_10x1_z18.svg

<?xml version="1.0" encoding="UTF-8" standalone="no"?>
<svg
   xmlns:dc="http://purl.org/dc/elements/1.1/"
   xmlns:cc="http://creativecommons.org/ns#"
   xmlns:rdf="http://www.w3.org/1999/02/22-rdf-syntax-ns#"
   xmlns:svg="http://www.w3.org/2000/svg"
   xmlns="http://www.w3.org/2000/svg"
   xmlns:sodipodi="http://sodipodi.sourceforge.net/DTD/sodipodi-0.dtd"
   xmlns:inkscape="http://www.inkscape.org/namespaces/inkscape"
   width="100%"
   height="100%"
   viewBox="0 0 81.0 17.0"
   id="svg2"
   version="1.1"
   inkscape:version="0.91 r13725"
   sodipodi:docname="autobahn_10x1_z18.svg">
  <metadata
     id="metadata9">
    <rdf:RDF>
      <cc:Work
         rdf:about="">
        <dc:format>image/svg+xml</dc:format>
        <dc:type
           rdf:resource="http://purl.org/dc/dcmitype/StillImage" />
        <dc:title></dc:title>
      </cc:Work>
    </rdf:RDF>
  </metadata>
  <defs
     id="defs7" />
  <sodipodi:namedview
     pagecolor="#ffffff"
     bordercolor="#666666"
     borderopacity="1"
     objecttolerance="10"
     gridtolerance="10"
     guidetolerance="10"
     inkscape:pageopacity="0"
     inkscape:pageshadow="2"
     inkscape:window-width="1188"
     inkscape:window-height="810"
     id="namedview5"
     showgrid="false"
     inkscape:zoom="4.3580247"
     inkscape:cx="40.5"
     inkscape:cy="8.6147309"
     inkscape:window-x="146"
     inkscape:window-y="60"
     inkscape:window-maximized="0"
     inkscape:current-layer="svg2" />
  <path
     inkscape:connector-curvature="0"
     style="fill:#365eaf;fill-opacity:1;stroke:#0528a2;stroke-width:1;stroke-miterlimit:4;stroke-dasharray:none;stroke-opacity:1"
     id="path6"
     d="m 0.5,8.499996 0,-5.527305 Q 0.5,2.681777 1.790323,2.536327 L 39.639786,0.514503 q 0,-0.01451 0.860211,-0.01451 0.860213,0 0.860213,0.01451 l 37.849465,2.021824 q 1.29032,0.14545 1.29032,0.436364 l 0,11.05461 q 0,0.290912 -1.29032,0.436363 L 41.36021,16.48549 q 0,0.01451 -0.860213,0.01451 -0.860211,0 -0.860211,-0.01451 L 1.790323,14.463664 Q 0.5,14.318213 0.5,14.027301 Z" />
</svg>

<?xml version="1.0" encoding="UTF-8"?>
<svg xmlns="http://www.w3.org/2000/svg" xmlns:xlink="http://www.w3.org/1999/xlink" width="78pt" height="21pt" viewBox="0 0 78 21" version="1.1">
<g id="surface1">
<path style="fill-rule:nonzero;fill:rgb(21.176471%,36.862745%,68.627451%);fill-opacity:1;stroke-width:1;stroke-linecap:butt;stroke-linejoin:miter;stroke:rgb(1.960784%,15.686275%,63.529412%);stroke-opacity:1;stroke-miterlimit:4;" d="M 0.498948 8.5 L 0.498948 2.97247 C 0.498948 2.779576 0.928936 2.634115 1.788912 2.536086 L 39.640024 0.515439 C 39.640024 0.505952 39.928035 0.499628 40.5 0.499628 C 41.071965 0.499628 41.359976 0.505952 41.359976 0.515439 L 79.211088 2.536086 C 80.071064 2.634115 80.501052 2.779576 80.501052 2.97247 L 80.501052 14.02753 C 80.501052 14.220424 80.071064 14.365885 79.211088 14.463914 L 41.359976 16.484561 C 41.359976 16.494048 41.071965 16.500372 40.5 16.500372 C 39.928035 16.500372 39.640024 16.494048 39.640024 16.484561 L 1.788912 14.463914 C 0.928936 14.365885 0.498948 14.220424 0.498948 14.02753 Z M 0.498948 8.5 " transform="matrix(0.962963,0,0,1.235294,0,0)"/>
</g>
</svg>
